X:591
T: KOMM WIR WOLLEN WANDERN
N: E1901A
O: Europa, Mitteleuropa, Deutschland, Niederrhein, Wesel
N: modulierend
R: Kinder - Lied, Wander - Spiel
M: 2/4
L: 1/16
K: C
G2 | G2c2c2c2 | c2A2G2z2 |
B2c2B4 | c4z2
G2 | c2c2c2c2 | c2BAG2z2 |
A2z2A2z2 | A2GFE2z2 |
G2c2B2A^G | A6

@@@ Tune index: 5275
